X: 51
T:The Road to Cashel
R:Reel
S:Paul O'Shaughnessy, Dublin (fiddle)
D:Television broadcast
C:Charlie Lennon
N:As played
Z:Bernie Stocks
M:4/4
K:D %i.e. Em modal
FE{F}ED +E3B,3+E | FE~E2 BdAB | FE~E2 EdBA | FD(3.D.D.D BdAB |
FE~E2 ~E3G | FE~E2 BdAB | FE~E2 EdBA | FD(3.D.D.D BdAd ||
~B3g (3fgfef | defa {b}afed | Bzge {afe}f2ed | {e}dBAd BEFA |
{dBA}B2 Bg (3.f.g.fef | defa {b}afef | bf(3.f.f.f af~f2 | bfaf edBA ||
<end>
<start>
